X:70
T:Reel 70
M:4/4
K:Gmaj
L:1/8
dc|BGBd g2gf| (3efg dc BAAc|BGBd g2ge| (3fed ef gedc|BGBd g2fg|efed edAz|BcBA GABc|dggf g2|ga|bgaf bgag|eaab c'aga|bgaf gfed|egfa g2ga|b>g (3gfg bgaf|gabg a2ga|bgaf gefdec|BcAB G2|
